lib/svgs/copy.svg

<svg xmlns="http://www.w3.org/2000/svg" viewBox="0 0 20 20">
    <path fill="#000" fill-rule="evenodd" d="M5.6284,4.5259 L4.347,4.5259 C3.606,4.5259 3,5.1329 3,5.8739 L3,16.6529 C3,17.3939 3.606,17.9999 4.347,17.9999 L12.432,17.9999 C13.173,17.9999 13.779,17.3939 13.779,16.6529 L13.779,15.474 L15.0604,15.474 C15.8014,15.474 16.4074,14.867 16.4074,14.126 L16.4074,7.422 C16.4074,7.065 16.2654,6.722 16.0124,6.469 L11.9384,2.395 C11.6854,2.142 11.3424,2 10.9854,2 L6.9754,2 C6.2344,2 5.6284,2.606 5.6284,3.347 L5.6284,4.5259 L5.6284,4.5259 Z M12.579,15.474 L12.579,16.6529 C12.579,16.7309 12.51,16.7999 12.432,16.7999 L4.347,16.7999 C4.269,16.7999 4.2,16.7309 4.2,16.6529 L4.2,5.8739 C4.2,5.7949 4.269,5.7259 4.347,5.7259 L5.6284,5.7259 L5.6284,14.126 C5.6284,14.867 6.2344,15.474 6.9754,15.474 L12.579,15.474 L12.579,15.474 L12.579,15.474 Z M15.2074,7.7263 L15.2074,14.126 C15.2074,14.205 15.1384,14.274 15.0604,14.274 L6.9754,14.274 C6.8974,14.274 6.8284,14.205 6.8284,14.126 L6.8284,3.347 C6.8284,3.269 6.8974,3.2 6.9754,3.2 L10.696,3.2 L10.696,6.3793 C10.696,7.1203 11.302,7.7263 12.043,7.7263 L15.2074,7.7263 L15.2074,7.7263 L15.2074,7.7263 Z M11.895,4.0486 L14.3727,6.5263 L12.043,6.5263 C11.964,6.5263 11.895,6.4573 11.895,6.3793 L11.895,4.0486 L11.895,4.0486 L11.895,4.0486 Z"/>
</svg>

<svg xmlns="http://www.w3.org/2000/svg" viewBox="0 0 20 20">
    <path fill="#000" fill-rule="evenodd" d="M5.628 4.526H4.347C3.606 4.526 3 5.133 3 5.874v10.779A1.35 1.35 0 0 0 4.347 18h8.085a1.35 1.35 0 0 0 1.347-1.347v-1.179h1.281c.741 0 1.347-.607 1.347-1.348V7.422c0-.357-.142-.7-.395-.953l-4.074-4.074A1.348 1.348 0 0 0 10.985 2h-4.01a1.35 1.35 0 0 0-1.347 1.347v1.179m6.951 10.948v1.179a.151.151 0 0 1-.147.147H4.347a.151.151 0 0 1-.147-.147V5.873c0-.078.069-.147.147-.147h1.281v8.4c0 .741.606 1.348 1.347 1.348h5.604m2.628-7.748v6.4a.151.151 0 0 1-.147.148H6.975a.151.151 0 0 1-.147-.148V3.347c0-.078.07-.147.147-.147h3.721v3.18a1.35 1.35 0 0 0 1.347 1.346h3.164M11.895 4.05l2.478 2.477h-2.33a.151.151 0 0 1-.148-.147V4.05"/>
</svg>
